!!!OTL: "Der Herr von Falkenstein" ICH SAH DEN HERRN VON FALKENSTEIN
!!!ARE: Europa, Mitteleuropa, Deutschland
!!!SCT: Z1038
!!!YEM: Copyright 1995, estate of Helmut Schaffrath.
**kern
*ICvox
*Ivox
*M4/4
*k[b-e-]
*g:
{4dd
=1
4dd
8cc
8b-
4.a
8dd
=2
4dd
8cc
8b-
4.a}
{8cc
=3
4.b-
8a
4g
4g
=4
2f#
4.g}
{8g
=5
4a
4b-
4.cc
8a
=6
4b-
4cc
4.dd}
{8cc
=7
4b-
4a
4g
4b-
=8
2a
4g}
==
!!!AGN: Romanze, Ballade
!!!ONB: ESAC (Essen Associative Code) Database: ZUCCAL
!!!AMT: simple quadruple
!!!AIN: vox
!!!EED: Helmut Schaffrath
!!!EEV: 1.0
*-
